X:1
T:Title
%%score ( 1 2 ) { 3 | 4 }
L:1/8
Q:1/4=92
M:3/4
K:C
V:1 treble nm="Grand Piano, Soprano"
V:2 treble 
V:3 treble nm="Choir Pad, Power to Save, W A Ogden"
V:4 bass 
V:1
 [CE]>[DF] [EG]3 [EG] | [FA]>[Ac] [FA]2 [EG]2 | [Ec]>[Ec] [FB]3 [FA] | [DF]>[FA] [FA]2 [EG]2 | %4
w: By~William~Augustine~Ogden * * *||||
 [CE]>[DF] [EG]3 [Ec] | (3[G-e][Gd][Gc] [Fd]2 [Ac]2 | (3[Ac][GB][FA] [EG]3 [Gc] | [Fc]>[FB] [Ec]4 | %8
w: ||||
[M:9/8] z3 [FA]2 [FA] [FA][GB][Ac] | [Ac][GB][FA] [EG]2 [CE] [EG]3 | z3 [FA]2 [FA] [FA][GB][Ac] | %11
w: |||
 [Ac][GB][FA] [EG]2 [CE] [EG]3 | [EG]2 [Ec] [Ge]3- [Ge]2 [Ge] | ed[Gc] [Fd]3 [Ac]3 | %14
w: |||
 [Ac][GB][FA] [EG]3- [EG]3/2 z/ [Gc] | [Fc]2 [FB] [Ec]6- | [Ec]3 z3 z3 |] %17
w: |||
V:2
 x6 | x6 | x6 | x6 | x6 | x6 | x6 | x6 |[M:9/8] x9 | x9 | x9 | x9 | x9 | .G3 z3 z3 | x9 | x9 | %16
 x9 |] %17
V:3
 G,>G, C3 C | C>C C2 C2 | G,>G, G,3 G, | B,>B,[K:treble] C2 C2 | G,>G, C3 C | (3CB,C A,2 C2 | %6
 (3:2:2C2 C D3 E | D>D C4 |[M:9/8][K:bass] C,D,E, C2 C CB,A, | A,B,C C2 G, C3 | %10
 C,D,E,[K:treble] C2 C CB,A, | A,B,C C2 G, C3 | z3 C2 C C2 C | CB,C A,3 C3 | z3 C2 C C2 E | %15
 D2 D C6- | C3 z3 z3 |] %17
V:4
 C,>C, C,3 C, | C,>C, C,2 C,2 | C,>C, D,3 D, | G,,>G,, C,2 C,2 | C,>C, C,3 C, | (3C,D,E, F,2 F,2 | %6
 (3:2:2F,2 F, G,3 G, | G,>G, C,4 |[M:9/8] z3 F,3- F,3/2 z/ F, | F,2 F, C,6 | z3 F,3- F,3/2 z/ F, | %11
 F,2 F, C,6 | z3 C,2 C, C,2 C, | C,D,E, F,6 | z3 G,2 G, G,2 G, | G,2 G, C,6- | C,3 z3 z3 |] %17

